modules/hawcons-stroke/icons/icon-12-tennis-ball.svg

<?xml version="1.0" encoding="UTF-8" standalone="no"?>
<svg width="32px" height="32px" viewBox="0 0 32 32" version="1.1" xmlns="http://www.w3.org/2000/svg" xmlns:xlink="http://www.w3.org/1999/xlink" xmlns:sketch="http://www.bohemiancoding.com/sketch/ns">
    <!-- Generator: Sketch 3.0.3 (7891) - http://www.bohemiancoding.com/sketch -->
    <title>icon 12 tennis ball</title>
    <desc>Created with Sketch.</desc>
    <defs></defs>
    <g id="Page-1" stroke="none" stroke-width="1" fill="none" fill-rule="evenodd" sketch:type="MSPage">
        <g id="icon-12-tennis-ball" sketch:type="MSArtboardGroup" fill="#929292">
            <path d="M16.5,4 C9.59644029,4 4,9.59644029 4,16.5 C4,23.4035597 9.59644029,29 16.5,29 C23.4035597,29 29,23.4035597 29,16.5 C29,9.59644029 23.4035597,4 16.5,4 L16.5,4 Z M16.5,28 C10.1487251,28 5,22.8512749 5,16.5 C5,10.1487251 10.1487251,5 16.5,5 C20.786071,5 24.5244959,7.34475025 26.5025235,10.8214996 C25.5663848,11.5595814 24.3846253,12 23.1000004,12 C21.8773035,12 21,11.5 19.8179276,10.9094298 C18.6358553,10.3188595 17.7120806,10 16.5,10 C12.9101489,10 10,12.9101489 10,16.5 C10,20.0898511 12.9101489,23 16.5,23 C17.7120806,23 19,22.5 19.8345591,22.0738494 C20.6691182,21.6476988 21.8773035,21 23.1000004,21 C24.3846253,21 25.5663848,21.4404186 26.5025235,22.1785004 C24.5244959,25.6552497 20.786071,28 16.5,28 L16.5,28 Z M28,16.5 C28,14.7969198 27.6297901,13.1803068 26.9654552,11.726246 C25.8850756,12.526642 24.5478174,13 23.1000004,13 C21.6437896,13 20,12.1000061 19,11.6000061 C18.1576514,11.1788319 17.4868586,11 16.5,11 C13.4624337,11 11,13.4624337 11,16.5 C11,19.5375663 13.4624337,22 16.5,22 C17.4868586,22 18.5736084,21.618103 19,21.3999939 C20.0396486,20.8681896 21.6437896,20 23.1000004,20 C24.5478174,20 25.8850756,20.473358 26.9654552,21.273754 C27.6297901,19.8196932 28,18.2030802 28,16.5 L28,16.5 Z" id="tennis-ball" sketch:type="MSShapeGroup"></path>
        </g>
    </g>
</svg>

<svg width="32" height="32" viewBox="0 0 32 32" xmlns="http://www.w3.org/2000/svg"><path d="M16.5 4C9.596 4 4 9.596 4 16.5S9.596 29 16.5 29 29 23.404 29 16.5 23.404 4 16.5 4zm0 24C10.149 28 5 22.851 5 16.5S10.149 5 16.5 5c4.286 0 8.024 2.345 10.003 5.821A5.477 5.477 0 0 1 23.1 12c-1.223 0-2.1-.5-3.282-1.09-1.182-.591-2.106-.91-3.318-.91a6.5 6.5 0 1 0 0 13c1.212 0 2.5-.5 3.335-.926C20.669 21.648 21.877 21 23.1 21c1.285 0 2.466.44 3.403 1.179A11.496 11.496 0 0 1 16.5 28zM28 16.5c0-1.703-.37-3.32-1.035-4.774A6.471 6.471 0 0 1 23.1 13c-1.456 0-3.1-.9-4.1-1.4-.842-.421-1.513-.6-2.5-.6a5.5 5.5 0 1 0 0 11c.987 0 2.074-.382 2.5-.6 1.04-.532 2.644-1.4 4.1-1.4 1.448 0 2.785.473 3.865 1.274A11.458 11.458 0 0 0 28 16.5z" fill="#929292" fill-rule="evenodd"/></svg>
